X:1
T:Title
%%score { ( 1 3 ) | ( 2 4 5 ) }
L:1/8
Q:1/4=110
M:4/4
K:Eb
V:1 treble nm="Grand Piano"
V:3 treble 
V:2 bass 
V:4 bass 
V:5 bass 
V:1
 B2 G2 F2 E2 | E4 D4 | [Dc]2 [CDA]2 G2 F2 | B8 | B2 e2 [Ge]2 [Gd]2 | [CG]2 [CGc]2 [_DGc]2 [DGB]2 | %6
w: E.~Elliot~Button * * *||||||
 [CFA]4 [CEG]4 | F4- [DF]4 | B2 G2 F2 E2 | E2 A2 B2 c2 | c2 =A2 G2 E2 | d8 | d2 =B2 =A2 G2 | %13
w: |||||||
 G2 c2 [FGd]2 [EGe]2 | [E=Ad]4 [EAc]4 | B8 | [GB]2 G2 F2 E2 | E4 D4 | [Dc]2 [CDA]2 [DG]2 [B,DF]2 | %19
w: ||||||
 E2 A2 G2 F2 | [Ee]2 [Ed]2 [Ec]2 [=EB]2 | [CFA]2 [B,FB]2 [B,EA]2 [B,EG]2 | [EF]4 [DF]4 | [G,E]8 |] %24
w: |||||
V:2
 [E,G,E]2 [E,B,E]2 [E,A,B,]2 [E,G,B,]2 | [F,A,B,]4 [F,A,B,]4 | %2
 [B,,A,]2 B,,2[K:treble] [B,D]2 [A,B,D]2 | [G,B,E]8 | [G,B,E]2 [G,B,G]2[K:bass] [F,=B,]2 [F,B,]2 | %5
 E,2 E,2 =E,2 E,2 | F,4 A,,4 | z4 A,4 | [E,G,_D]2 [E,B,D]2 [F,A,D]2 [G,B,D]2 | [A,C]4 [_G,B,E]4 | %10
 [F,=A,E]2 [F,CE]2[K:treble] [G,B,E]2 [A,C]2 | [B,D]4 [A,C]4 | [G,=B,F]2 [G,DF]2 [=A,CF]2 [B,DF]2 | %13
 [CE]2 [CEG]2[K:bass] C,2 C,2 | F,4 F,4 | [B,DF]2 B,2- [G,B,C]2[K:bass] [F,A,C]2 | %16
 [E,G,E]2 [E,B,E]2 [E,A,B,]2 [E,G,B,]2 | [F,A,B,]4 [F,A,B,]4 | [B,,A,]2 B,,2 B,2 A,2 | %19
 G,2 F,2 E,2 D,2 | [C,G,]2 [B,,G,]2 [A,,A,]2 [C,G,C]2 | F,2 D,2 E,2 G,2 | B,6 z2 | E,8 |] %24
V:3
 x8 | x8 | x8 | x8 | x8 | x8 | x8 | [F,E]4 z4 | x8 | x8 | x8 | z4 F4 | x8 | x8 | x8 | z2 D2 E2 F2 | %16
 x8 | x8 | x8 | [B,B]8 | x8 | x8 | x8 | x8 |] %24
V:4
 x8 | x8 | x4[K:treble] x4 | x8 | x4[K:bass] x4 | x8 | x8 | B,,8 | x8 | x8 | x4[K:treble] x4 | x8 | %12
 x8 | x4[K:bass] x4 | x8 | z2 A,2 z4[K:bass] | x8 | x8 | x8 | x8 | x8 | x8 | z4 z2 A,2 | x8 |] %24
V:5
 x8 | x8 | x4[K:treble] x4 | x8 | x4[K:bass] x4 | x8 | x8 | x8 | x8 | x8 | x4[K:treble] x4 | x8 | %12
 x8 | x4[K:bass] x4 | x8 | x6[K:bass] x2 | x8 | x8 | x8 | x8 | x8 | x8 | z4 B,,4 | x8 |] %24

